X: 1
T:Tabhair Dom Do Lmh
T:Give Me Your Hand
M:6/8
L:1/8
Q:70
C:Attr. to Rory Dall  Cathin
S:Appears in O'Neill's Music of Ireland as #406
D:The Chieftans 5
Z:O'Neill's version is missing measure 17.
Z:Measues 8 & 9 may also be played |(EG).G g2 G|(EG).G g2 D|, per
Z:O'Neill.
K:G
D|(EG).G G2 D|(EG).G G2 D|(EG).G (GA).B|Bed B2 (A/2G/2)|.A(Ae)
.B(Bd)|.A(A/2B/2A/2G/2) E2 D|(EG).G G2 D|
(EG).G G2 D|(EG).G (ga).b|.d(d/2b/2a/2b/2) g2 G|(EG).G (GA).B|Bed B2
(A/2G/2)|.A(Ae) .B(Bd)|
.A(AB/2d/2) e2 (d/2B/2)|d(de) g2 (e/2d/2)|g(ga) b2 (d/2e/2)|.g.g(d/2e/2)
.g.g(d/2e/2)|.g.g.a b3 |.b.b.b b2 (a/2g/2)|
(a/2g/2a/2b/2)(a/2b/2) a2 (g/2f/2)|.e.e(g/2e/2) .d.d(e/2d/2)|.B.B(d/2B/2
